assets/img/ticon2.svg

<svg width="80" height="80" viewBox="0 0 80 80" fill="none" xmlns="http://www.w3.org/2000/svg">
<path fill-rule="evenodd" clip-rule="evenodd" d="M8 18.7757L8 61.2243C8 67.1614 12.8386 72 18.8018 72L40 72C41.2946 72 42.3539 70.9408 42.3539 69.6461L42.3539 33.4614L47.5455 38.6531C48.4609 39.5685 49.9518 39.5685 50.8803 38.6531C51.3379 38.1953 51.5733 37.5939 51.5733 36.9923C51.5733 36.3907 51.3379 35.7892 50.8803 35.3315L41.6739 26.1251C40.7584 25.2097 39.2677 25.2097 38.3392 26.1251L29.1328 35.3315C28.2174 36.2468 28.2174 37.7376 29.1328 38.6661C30.0482 39.5816 31.539 39.5816 32.4675 38.6661L37.6461 33.4614L37.6461 67.2922L18.8018 67.2922C15.4409 67.2922 12.7078 64.5722 12.7078 61.2243L12.7078 18.7757C12.7078 15.4278 15.4409 12.7078 18.8018 12.7078L61.1982 12.7078C64.5591 12.7078 67.2922 15.4278 67.2922 18.7757L67.2922 61.2243C67.2922 64.5722 64.5591 67.2922 61.1982 67.2922L55.7058 67.2922C54.4111 67.2922 53.3519 68.3515 53.3519 69.6461C53.3519 70.9408 54.4111 72 55.7058 72L61.1982 72C67.1484 72 72 67.1614 72 61.2243L72 18.7757C72 12.8386 67.1614 8 61.1982 8L18.8018 8C12.8516 8 8 12.8386 8 18.7757Z" fill="#2C4B9B" stroke="white"/>
</svg>

<svg width="80" height="80" fill="none" xmlns="http://www.w3.org/2000/svg"><path fill-rule="evenodd" clip-rule="evenodd" d="M8 18.776v42.448C8 67.161 12.839 72 18.802 72H40a2.36 2.36 0 002.354-2.354V33.461l5.191 5.192a2.368 2.368 0 003.335 0c.458-.458.693-1.06.693-1.66a2.35 2.35 0 00-.693-1.662l-9.206-9.206a2.368 2.368 0 00-3.335 0l-9.206 9.206a2.368 2.368 0 000 3.335 2.368 2.368 0 003.335 0l5.178-5.205v33.831H18.802c-3.361 0-6.094-2.72-6.094-6.068V18.776c0-3.348 2.733-6.068 6.094-6.068h42.396c3.361 0 6.094 2.72 6.094 6.068v42.448c0 3.348-2.733 6.068-6.094 6.068h-5.492a2.36 2.36 0 00-2.354 2.354A2.36 2.36 0 0055.706 72h5.492C67.148 72 72 67.161 72 61.224V18.776C72 12.839 67.161 8 61.198 8H18.802C12.852 8 8 12.839 8 18.776z" fill="#2C4B9B" stroke="#fff"/></svg>
